alpha-n-box.svg

<svg fill="currentColor" viewBox="0 0 24 24"><path d="M9 7v10h2v-5l2 5h2V7h-2v5l-2-5zM5 3h14a2 2 0 0 1 2 2v14a2 2 0 0 1-2 2H5a2 2 0 0 1-2-2V5a2 2 0 0 1 2-2"/></svg>

<svg  viewBox="0 0 24 24" fill="currentColor"><path  d="M9,7V17H11V12L13,17H15V7H13V12L11,7H9M5,3H19A2,2 0 0,1 21,5V19A2,2 0 0,1 19,21H5A2,2 0 0,1 3,19V5A2,2 0 0,1 5,3Z"/></svg>
